X: 10
T:Over the Moor to Maggie
M:C|
L:1/8
R:reel
K:G
~G3A BGBd|efge dBAG|EA~A2 ABAG|EA~A2 AcBA|
~G3A BGBd|efge dBAG|EG~G2 BGAG|1 EGGF G2DE:|2 EGGF G2ga||
|:bg ~g2 agef|~g3e d2Bd|ea~a2 abag|ea~a2 a2ga|
bg ~g2 agef|~g3e d2Bd|eg~g2 bgag|1 eggf g2ga:|2 eggf g2Bd||
|:e3c d3B|c3A ~B2AG|EA~A2 ABAG|EA~A2 ABcd|
e3c d3B|c3A ~B2AG|EG~G2 BGAG|1 EGGF G2Bd:|2 EGGF G2DE||

